public/xch.svg

<svg fill="none" height="61" viewBox="0 0 61 61" width="61" xmlns="http://www.w3.org/2000/svg" xmlns:xlink="http://www.w3.org/1999/xlink"><linearGradient id="a"><stop offset=".00800497" stop-color="#38dbff"/><stop offset="1" stop-color="#243aff"/></linearGradient><linearGradient id="b" gradientUnits="userSpaceOnUse" x1="5.9263" x2="47.3776" xlink:href="#a" y1="13.6387" y2="44.3487"/><linearGradient id="c" gradientUnits="userSpaceOnUse" x1="5.52981" x2="46.9811" xlink:href="#a" y1="36.0137" y2="66.7237"/><linearGradient id="d" gradientUnits="userSpaceOnUse" x1="19.7506" x2="48.0138" xlink:href="#a" y1="18.7937" y2="23.4398"/><path d="m53.1432 16.4027v10.1687h-10.6262v-3.66h4.2273c-2.8609-6.1122-9.0646-10.3456-16.2443-10.3456-9.8881 0-17.934 8.0459-17.934 17.934h-3.65999c0-11.9072 9.68679-21.59404 21.59399-21.59404 8.1862 0 15.3293 4.58114 18.9832 11.32164v-3.8247z" fill="url(#b)"/><path d="m8.50952 45.3779v-10.1687h10.62618v3.66h-4.2273c2.8609 6.1122 9.0646 10.3456 16.2443 10.3456 9.8881 0 17.934-8.0459 17.934-17.934h3.66c0 11.9072-9.6868 21.594-21.594 21.594-8.1862 0-15.3293-4.5811-18.9832-11.3216v3.8247z" fill="url(#c)"/><path d="m32.1901 46.0197v-2.6118c4.5789-.3547 7.3197-3.0956 7.3197-6.9328 0-3.289-2.2894-5.1269-6.0943-5.9331l-3.2246-.6771c-1.451-.2902-2.7731-.9674-2.7731-2.4507 0-1.6767 1.3866-2.7408 3.4503-2.7408 2.2249 0 3.7404 1.4188 3.8694 3.547h4.4821c-.2902-3.9339-3.0633-6.5781-7.0295-7.094v-2.7086h-2.9343v2.7086c-3.7727.5482-6.3845 3.1601-6.3845 6.6425 0 3.8695 2.6763 5.3527 5.8041 6.0621l3.289.6772c1.6445.3547 2.7731 1.1608 2.7731 2.5474 0 1.7734-1.709 2.773-3.9339 2.773-2.6764 0-4.1919-1.4187-4.2564-3.7082h-4.4821c.2902 3.9662 2.9343 6.6748 7.1907 7.223v2.6763z" fill="url(#d)"/></svg>

<svg width="61" height="61" viewBox="0 0 61 61" fill="none" xmlns="http://www.w3.org/2000/svg">
<path d="M53.1432 16.4027V26.5714H42.517V22.9114H46.7443C43.8834 16.7992 37.6797 12.5658 30.5 12.5658C20.6119 12.5658 12.566 20.6117 12.566 30.4998H8.90601C8.90601 18.5926 18.5928 8.90576 30.5 8.90576C38.6862 8.90576 45.8293 13.4869 49.4832 20.2274V16.4027H53.1432Z" fill="url(#paint0_linear_70_250)"/>
<path d="M8.50952 45.3779V35.2092H19.1357V38.8692H14.9084C17.7693 44.9814 23.973 49.2148 31.1527 49.2148C41.0408 49.2148 49.0867 41.1689 49.0867 31.2808H52.7467C52.7467 43.188 43.0599 52.8748 31.1527 52.8748C22.9665 52.8748 15.8234 48.2937 12.1695 41.5532V45.3779H8.50952Z" fill="url(#paint1_linear_70_250)"/>
<path d="M32.1901 46.0197V43.4079C36.769 43.0532 39.5098 40.3123 39.5098 36.4751C39.5098 33.1861 37.2204 31.3482 33.4155 30.542L30.1909 29.8649C28.7399 29.5747 27.4178 28.8975 27.4178 27.4142C27.4178 25.7375 28.8044 24.6734 30.8681 24.6734C33.093 24.6734 34.6085 26.0922 34.7375 28.2204H39.2196C38.9294 24.2865 36.1563 21.6423 32.1901 21.1264V18.4178H29.2558V21.1264C25.4831 21.6746 22.8713 24.2865 22.8713 27.7689C22.8713 31.6384 25.5476 33.1216 28.6754 33.831L31.9644 34.5082C33.6089 34.8629 34.7375 35.669 34.7375 37.0556C34.7375 38.829 33.0285 39.8286 30.8036 39.8286C28.1272 39.8286 26.6117 38.4099 26.5472 36.1204H22.0651C22.3553 40.0866 24.9994 42.7952 29.2558 43.3434V46.0197H32.1901Z" fill="url(#paint2_linear_70_250)"/>
<defs>
<linearGradient id="paint0_linear_70_250" x1="5.9263" y1="13.6387" x2="47.3776" y2="44.3487" gradientUnits="userSpaceOnUse">
<stop offset="0.00800497" stop-color="#38DBFF"/>
<stop offset="1" stop-color="#243AFF"/>
</linearGradient>
<linearGradient id="paint1_linear_70_250" x1="5.52981" y1="36.0137" x2="46.9811" y2="66.7237" gradientUnits="userSpaceOnUse">
<stop offset="0.00800497" stop-color="#38DBFF"/>
<stop offset="1" stop-color="#243AFF"/>
</linearGradient>
<linearGradient id="paint2_linear_70_250" x1="19.7506" y1="18.7937" x2="48.0138" y2="23.4398" gradientUnits="userSpaceOnUse">
<stop offset="0.00800497" stop-color="#38DBFF"/>
<stop offset="1" stop-color="#243AFF"/>
</linearGradient>
</defs>
</svg>
